assets/images/icons/tourist-regions.svg

<svg width="64" height="60" viewBox="0 0 64 60" fill="none" xmlns="http://www.w3.org/2000/svg">
<g clip-path="url(#clip0_18_341)">
<path fill-rule="evenodd" clip-rule="evenodd" d="M42.4564 7.30505e-05C42.8771 -0.023369 61.5589 5.60272 62.1527 5.93091C62.7837 6.27082 63.3281 6.93892 63.526 7.63046C63.6374 8.01725 63.6621 14.1122 63.6374 32.6314L63.6003 57.1283L63.3281 57.6089C62.7218 58.6755 61.2991 59.4139 60.1608 59.2499C59.901 59.203 55.8182 58.0191 51.1045 56.6126L42.543 54.0457L32.101 57.0229C26.3604 58.6521 21.5601 59.9883 21.4487 60C21.0528 60 2.35866 54.3505 1.82666 54.0574C1.19569 53.7175 0.651321 53.0494 0.453368 52.3579C0.34202 51.9711 0.317276 45.8762 0.34202 27.3569L0.379136 2.86L0.651321 2.37944C1.24518 1.32455 2.70508 0.574403 3.83094 0.738498C4.10312 0.785382 8.18589 1.96921 12.8873 3.37573L21.4363 5.94263L31.8165 2.97721C37.5324 1.34799 42.3203 0.0117941 42.4564 7.30505e-05ZM41.4296 2.34428C41.3677 2.356 37.322 3.50466 32.4227 4.89946C27.5234 6.29426 23.2798 7.50153 22.9952 7.58358L22.4632 7.73595V46.8725H23.2055C23.8365 46.8725 24.0097 46.9193 24.2572 47.1655C24.6407 47.5171 24.6531 48.0211 24.319 48.4313C24.084 48.7127 23.9602 48.7595 22.9334 48.9236L22.4632 48.994V53.3307C22.4632 57.4097 22.4756 57.6675 22.6859 57.6089C22.7973 57.5737 26.6326 56.4837 31.1855 55.1944C35.7508 53.8933 39.9325 52.7095 40.5017 52.5454L41.5162 52.2524V14.0184L40.7367 14.1005C40.3037 14.1356 39.6356 14.2528 39.2397 14.3466C38.0644 14.6396 37.6561 14.5693 37.3715 14.0419C36.9261 13.2331 37.322 12.7408 38.7325 12.4126C39.2768 12.2837 40.1305 12.1431 40.6254 12.0962L41.5162 12.0258V7.18506C41.5162 4.51267 41.479 2.33256 41.4296 2.34428ZM44.337 2.56698L43.6194 2.34428V12.0376L44.337 12.1196C45.5123 12.2603 47.2815 12.8463 47.5785 13.1979C47.9125 13.6082 47.9001 14.1122 47.5166 14.4638C47.1702 14.8037 46.6877 14.8389 46.0072 14.581C45.5247 14.4052 44.0524 14.0536 43.7679 14.0536C43.6442 14.0536 43.6194 17.9098 43.6442 33.1706L43.6813 52.2876L52.0695 54.7959C57.872 56.5306 60.5567 57.2807 60.7671 57.2338C60.9279 57.1987 61.1753 57.0229 61.3114 56.8705C61.5589 56.5775 61.5589 56.3313 61.5589 32.4321C61.5589 11.3577 61.5341 8.25167 61.3733 7.95865C61.163 7.57185 61.9548 7.82972 52.1561 4.91118C48.2466 3.7508 44.7205 2.69591 44.337 2.56698ZM3.65773 2.75451C3.24945 2.68419 2.86592 2.83656 2.61848 3.17647C2.43289 3.41089 2.42052 5.591 2.42052 27.5679C2.42052 48.6306 2.44527 51.7367 2.6061 52.0297C2.81643 52.4165 2.06173 52.1704 11.5758 55.0068C15.3493 56.1321 18.8753 57.187 19.4073 57.3393L20.36 57.6324V48.9822L20.0507 48.9119C19.3331 48.7361 19.1104 47.6695 19.6919 47.2358C19.8775 47.0952 20.1002 46.9897 20.1868 46.9897C20.3352 46.9897 20.36 43.8953 20.3352 27.3452L20.2981 7.70079L12.1326 5.25109C7.64152 3.9149 3.83094 2.78968 3.65773 2.75451ZM35.8745 14.5927C36.357 15.0616 36.3075 15.5773 35.7261 16.1985C35.4662 16.4681 35.0703 16.9487 34.8476 17.2534C34.6249 17.5699 34.3156 17.8629 34.1672 17.9215C33.5115 18.1559 32.732 17.6519 32.732 16.9838C32.732 16.5736 33.5486 15.4132 34.2785 14.7686C34.9466 14.1942 35.392 14.1356 35.8745 14.5927ZM32.3609 20.0313C32.8186 20.0313 33.2269 20.3243 33.3877 20.7463C33.4496 20.9455 33.1774 23.1257 33.0413 23.4656C32.7939 24.0282 31.6804 24.1337 31.3092 23.6297C30.9381 23.1257 31.1731 20.7697 31.6433 20.2892C31.8289 20.1133 32.0516 20.0313 32.3609 20.0313ZM32.6949 26.2903C33.0413 26.5716 33.0413 26.5834 33.0413 28.0016C33.0413 29.4198 33.0413 29.4316 32.6949 29.7129C32.2371 30.0762 31.6928 30.0762 31.3092 29.7011C31.037 29.455 30.9999 29.3026 30.9752 28.5056C30.9257 26.7826 30.9504 26.5599 31.3092 26.2786C31.7299 25.927 32.2619 25.9387 32.6949 26.2903ZM31.8783 31.9868C32.2248 31.9868 32.8062 32.2915 32.9052 32.5142C33.0289 32.8307 32.9918 34.706 32.8557 35.1749C32.633 35.9133 31.8907 36.1946 31.2721 35.7844C30.8267 35.4913 30.7649 35.1631 30.8638 33.8035C30.9504 32.6197 30.9876 32.5142 31.2969 32.2563C31.4824 32.1157 31.7423 31.9868 31.8783 31.9868ZM32.3609 38.9373C32.3485 39.5234 31.7546 41.3987 31.4824 41.6683C30.901 42.2544 29.7627 41.8559 29.7627 41.0705C29.7627 40.5665 30.3195 38.5857 30.5298 38.3513C30.6164 38.2575 30.7896 38.1286 30.9381 38.07C31.5072 37.8473 32.3609 38.3747 32.3609 38.9373ZM29.8246 44.5048C29.9359 45.0088 29.7132 45.3956 28.8596 46.2278C28.1791 46.8959 28.0306 46.9897 27.6224 46.9897C27.0285 46.9897 26.546 46.5677 26.546 46.052C26.546 45.7824 26.7192 45.5128 27.2388 44.9619C27.6224 44.5634 28.043 44.1415 28.1791 44.0242C28.7111 43.5906 29.6761 43.8719 29.8246 44.5048ZM51.3519 16.2102C52.4036 17.6051 52.5644 18.2849 51.9334 18.742C51.3024 19.2226 50.6715 18.9881 50.1024 18.0739C49.9168 17.7574 49.558 17.2534 49.2858 16.937C48.6177 16.1399 48.6548 15.4953 49.3724 15.1319C50.0034 14.8037 50.4859 15.0616 51.3519 16.2102ZM53.6903 22.3169C53.9995 22.6334 54.1356 23.3015 54.1356 24.6142C54.1356 25.2237 54.0862 25.4347 53.8882 25.634C53.381 26.138 52.6139 26.0911 52.2427 25.5167C52.1314 25.3526 52.0324 24.7432 51.9829 23.9344C51.8963 22.6334 51.8963 22.6099 52.2056 22.3169C52.6263 21.9184 53.2943 21.9184 53.6903 22.3169ZM53.8263 28.2946C54.1233 28.5642 54.1356 28.6463 54.1356 29.9942C54.1356 31.3421 54.1233 31.4241 53.8263 31.6937C53.4057 32.104 52.8613 32.0805 52.3912 31.6468C52.0324 31.3069 52.0324 31.2835 52.0324 29.9942C52.0324 28.7049 52.0324 28.6814 52.3912 28.3415C52.8613 27.9078 53.4057 27.8844 53.8263 28.2946ZM53.5542 34.12C54.0367 34.3544 54.1233 34.5888 54.1356 35.5265C54.1356 36.3939 54.1233 36.429 53.7397 36.7338C53.2696 37.1088 52.7376 37.0737 52.317 36.6048C52.0819 36.3587 52.0324 36.1712 52.0324 35.4913C52.0324 34.7295 52.0571 34.6357 52.3912 34.3192C52.7747 33.9559 53.1211 33.8973 53.5542 34.12ZM49.0631 36.0305C49.2363 36.0774 50.1766 36.851 51.2282 37.859L53.084 39.6054L54.9398 37.8473C56.8451 36.0422 57.1915 35.8195 57.7483 36.1008C58.1689 36.3118 58.3298 36.5697 58.3421 37.0151C58.3421 37.3784 58.1566 37.5894 56.4616 39.2186L54.581 41.0119L56.4616 42.8053C58.1071 44.3759 58.3421 44.6572 58.3421 44.9854C58.3421 45.5128 57.872 45.9348 57.2781 45.9348C56.8451 45.9348 56.6843 45.8176 54.9522 44.1766L53.084 42.4185L51.2158 44.1883C49.4961 45.8176 49.3106 45.9582 48.8775 45.9699C48.3084 45.9817 47.8259 45.5363 47.8259 44.9736C47.8259 44.6572 48.0857 44.3524 49.7065 42.8053L51.587 41.0119L49.7807 39.2889C48.6053 38.1637 47.9373 37.437 47.8754 37.2143C47.764 36.7924 48.0115 36.3353 48.4445 36.1243C48.6177 36.0422 48.8899 35.9953 49.0631 36.0305ZM15.8689 12.3306C16.8216 13.5613 17.168 14.5576 17.1556 16.1048C17.1556 18.4724 16.0916 20.9338 14.0008 23.3835C13.0357 24.5205 11.5387 25.8684 11.1181 25.9621C10.6232 26.0794 10.1654 25.798 9.01482 24.6845C6.3672 22.1176 4.83307 19.3515 4.57326 16.7143C4.26396 13.4558 6.56516 10.5724 9.90561 10.0684C12.1078 9.72852 14.5822 10.6662 15.8689 12.3306ZM7.09715 14.2646C6.71362 14.9913 6.68888 15.1202 6.70125 16.1634C6.71362 17.0776 6.77548 17.4527 7.08478 18.2849C7.69101 19.961 9.02719 21.9301 10.3757 23.1725L10.9201 23.6883L11.8233 22.7037C13.4193 20.969 14.3348 19.4687 14.8049 17.8512C15.1514 16.6322 15.1019 15.0733 14.6688 14.288C14.1245 13.28 13.345 12.6002 12.3182 12.2603C10.2149 11.557 8.07454 12.3892 7.09715 14.2646ZM11.5882 15.3312C12.0583 15.7766 12.0583 16.1985 11.5882 16.6439C11.1181 17.0776 10.5737 17.101 10.153 16.6908C9.63342 16.2102 9.75714 15.4601 10.4005 15.1319C10.8211 14.9092 11.2047 14.9795 11.5882 15.3312ZM11.5882 28.3415C11.947 28.6814 11.947 28.7049 11.947 29.9942C11.947 31.2835 11.947 31.3069 11.5882 31.6468C11.1181 32.0805 10.5737 32.104 10.153 31.6937C9.85612 31.4241 9.84375 31.3421 9.84375 29.9942C9.84375 28.6463 9.85612 28.5642 10.153 28.2946C10.5737 27.8844 11.1181 27.9078 11.5882 28.3415ZM11.5882 34.3192C11.947 34.6591 11.947 34.6709 11.947 36.0774C11.947 37.4487 11.947 37.4839 11.6253 37.7183C11.1676 38.0582 10.5737 38.0348 10.2025 37.6597C9.93035 37.3784 9.90561 37.2495 9.86849 35.9953C9.83137 34.5654 9.88086 34.4013 10.4005 34.12C10.8088 33.8973 11.2047 33.9676 11.5882 34.3192ZM12.0707 40.1329C12.3429 40.2618 12.4666 40.4493 12.6275 40.9768C12.7388 41.3519 12.9368 41.9379 13.0728 42.2778C13.3821 43.0748 13.3698 43.2741 13.011 43.6609C12.6027 44.118 11.9099 44.118 11.5016 43.6726C11.217 43.3561 10.4623 41.3401 10.4623 40.883C10.4623 40.7541 10.6232 40.4845 10.8211 40.297C11.2294 39.9219 11.5387 39.875 12.0707 40.1329ZM14.4461 44.9971C14.7678 44.9971 16.2401 45.8293 16.8092 46.3216C17.4278 46.8725 17.168 47.7398 16.3019 47.986C15.9803 48.068 15.1019 47.6812 14.2234 47.06C13.345 46.4505 13.2089 45.8879 13.7904 45.337C13.9884 45.1495 14.2853 44.9971 14.4461 44.9971Z" fill="#334155"/>
</g>
<defs>
<clipPath id="clip0_18_341">
<rect width="63.3129" height="60" fill="white" transform="translate(0.333252)"/>
</clipPath>
</defs>
</svg>

<svg version="1.2" xmlns="http://www.w3.org/2000/svg" viewBox="0 0 64 60" width="64" height="60">
    <path fill="#334155" fill-rule="evenodd" d="m42.5 0c0.4 0 19.1 5.6 19.7 5.9 0.6 0.4 1.1 1 1.3 1.7 0.1 0.4 0.2 6.5 0.1 25v24.5l-0.3 0.5c-0.6 1.1-2 1.8-3.1 1.6-0.3 0-4.4-1.2-9.1-2.6l-8.6-2.6-10.4 3c-5.7 1.7-10.5 3-10.7 3-0.3 0-19-5.6-19.6-5.9-0.6-0.4-1.1-1.1-1.3-1.7-0.2-0.4-0.2-6.5-0.2-25l0.1-24.5 0.3-0.5c0.5-1.1 2-1.8 3.1-1.7 0.3 0.1 4.4 1.3 9.1 2.7l8.5 2.5 10.4-2.9c5.7-1.7 10.5-3 10.7-3zm-1.1 2.3c0 0.1-4.1 1.2-9 2.6-4.9 1.4-9.1 2.6-9.4 2.7l-0.5 0.1v39.2h0.7c0.6 0 0.8 0 1.1 0.3 0.3 0.3 0.4 0.8 0 1.2-0.2 0.3-0.3 0.4-1.4 0.5l-0.4 0.1v4.3c0 4.1 0 4.4 0.2 4.3 0.1 0 3.9-1.1 8.5-2.4 4.6-1.3 8.7-2.5 9.3-2.7l1-0.2v-38.3l-0.8 0.1c-0.4 0-1.1 0.2-1.5 0.2-1.1 0.3-1.5 0.3-1.8-0.3-0.5-0.8-0.1-1.3 1.3-1.6 0.6-0.1 1.4-0.3 1.9-0.3l0.9-0.1v-4.8c0-2.7 0-4.9-0.1-4.9zm2.9 0.3l-0.7-0.3v9.7l0.7 0.1c1.2 0.2 3 0.7 3.3 1.1 0.3 0.4 0.3 0.9-0.1 1.3q-0.5 0.5-1.5 0.1c-0.5-0.2-1.9-0.5-2.2-0.5-0.2 0-0.2 3.8-0.2 19.1l0.1 19.1 8.4 2.5c5.8 1.7 8.5 2.5 8.7 2.4 0.1 0 0.4-0.2 0.5-0.3 0.3-0.3 0.3-0.6 0.3-24.5 0-21-0.1-24.1-0.2-24.4-0.2-0.4 0.6-0.2-9.2-3.1-4-1.1-7.5-2.2-7.9-2.3zm-40.6 0.2c-0.5-0.1-0.8 0-1.1 0.4-0.2 0.2-0.2 2.4-0.2 24.4 0 21 0 24.1 0.2 24.4 0.2 0.4-0.5 0.2 9 3 3.7 1.1 7.3 2.2 7.8 2.3l1 0.3v-8.6l-0.3-0.1c-0.8-0.2-1-1.2-0.4-1.7 0.2-0.1 0.4-0.2 0.5-0.2 0.1 0 0.2-3.1 0.1-19.7v-19.6l-8.2-2.4c-4.5-1.4-8.3-2.5-8.4-2.5zm32.2 11.8q0.7 0.7-0.2 1.6c-0.2 0.3-0.6 0.7-0.9 1.1-0.2 0.3-0.5 0.6-0.6 0.6-0.7 0.3-1.5-0.2-1.5-0.9 0-0.4 0.8-1.6 1.6-2.2 0.6-0.6 1.1-0.7 1.6-0.2zm-3.5 5.4c0.4 0 0.8 0.3 1 0.7 0 0.2-0.2 2.4-0.4 2.8-0.2 0.5-1.3 0.6-1.7 0.1-0.4-0.5-0.1-2.8 0.3-3.3q0.3-0.3 0.8-0.3zm0.3 6.3c0.3 0.3 0.3 0.3 0.3 1.7 0 1.4 0 1.4-0.3 1.7-0.5 0.4-1 0.4-1.4 0-0.3-0.2-0.3-0.4-0.3-1.2-0.1-1.7 0-1.9 0.3-2.2 0.4-0.4 1-0.4 1.4 0zm-0.8 5.7c0.3 0 0.9 0.3 1 0.5 0.1 0.3 0.1 2.2 0 2.7-0.3 0.7-1 1-1.6 0.6-0.5-0.3-0.5-0.6-0.4-2 0.1-1.2 0.1-1.3 0.4-1.5 0.2-0.2 0.4-0.3 0.6-0.3zm0.5 6.9c-0.1 0.6-0.6 2.5-0.9 2.8-0.6 0.6-1.7 0.2-1.7-0.6 0-0.5 0.5-2.5 0.7-2.7 0.1-0.1 0.3-0.3 0.4-0.3 0.6-0.3 1.5 0.3 1.5 0.8zm-2.6 5.6c0.1 0.5-0.1 0.9-0.9 1.7-0.7 0.7-0.9 0.8-1.3 0.8-0.6 0-1.1-0.4-1.1-0.9 0-0.3 0.2-0.6 0.7-1.1 0.4-0.4 0.8-0.9 1-1 0.5-0.4 1.5-0.1 1.6 0.5zm21.6-28.3c1 1.4 1.2 2.1 0.5 2.5-0.6 0.5-1.2 0.3-1.8-0.6-0.2-0.3-0.5-0.8-0.8-1.2-0.7-0.8-0.6-1.4 0.1-1.8 0.6-0.3 1.1 0 2 1.1zm2.3 6.1c0.3 0.3 0.4 1 0.4 2.3 0 0.6 0 0.8-0.2 1-0.5 0.5-1.3 0.5-1.7-0.1-0.1-0.1-0.2-0.8-0.2-1.6-0.1-1.3-0.1-1.3 0.2-1.6 0.4-0.4 1.1-0.4 1.5 0zm0.1 6c0.3 0.3 0.3 0.3 0.3 1.7 0 1.3 0 1.4-0.3 1.7-0.4 0.4-0.9 0.4-1.4-0.1-0.4-0.3-0.4-0.3-0.4-1.6 0-1.3 0-1.3 0.4-1.7 0.5-0.4 1-0.4 1.4 0zm-0.2 5.8c0.4 0.3 0.5 0.5 0.5 1.4 0 0.9 0 0.9-0.4 1.2-0.4 0.4-1 0.4-1.4-0.1-0.2-0.2-0.3-0.4-0.3-1.1 0-0.8 0.1-0.9 0.4-1.2 0.4-0.3 0.7-0.4 1.2-0.2zm-4.5 1.9c0.1 0.1 1.1 0.9 2.1 1.9l1.9 1.7 1.8-1.8c1.9-1.8 2.3-2 2.8-1.7 0.5 0.2 0.6 0.5 0.6 0.9 0 0.4-0.1 0.6-1.8 2.2l-1.9 1.8 1.9 1.8c1.6 1.6 1.8 1.9 1.8 2.2 0 0.5-0.4 0.9-1 0.9-0.5 0-0.6-0.1-2.3-1.7l-1.9-1.8-1.9 1.8c-1.7 1.6-1.9 1.8-2.3 1.8-0.6 0-1.1-0.5-1.1-1 0-0.3 0.3-0.6 1.9-2.2l1.9-1.8-1.8-1.7c-1.2-1.1-1.9-1.9-1.9-2.1-0.1-0.4 0.1-0.9 0.5-1.1 0.2-0.1 0.5-0.1 0.7-0.1zm-33.2-23.7c0.9 1.3 1.3 2.3 1.3 3.8 0 2.4-1.1 4.8-3.2 7.3-1 1.1-2.5 2.5-2.9 2.6-0.5 0.1-0.9-0.2-2.1-1.3-2.6-2.6-4.2-5.3-4.4-8-0.3-3.2 2-6.1 5.3-6.6 2.2-0.4 4.7 0.6 6 2.2zm-8.8 2c-0.4 0.7-0.4 0.8-0.4 1.9 0 0.9 0.1 1.3 0.4 2.1 0.6 1.7 1.9 3.6 3.3 4.9l0.5 0.5 0.9-1c1.6-1.7 2.5-3.2 3-4.8 0.4-1.3 0.3-2.8-0.1-3.6q-0.8-1.5-2.4-2c-2.1-0.7-4.2 0.1-5.2 2zm4.5 1q0.7 0.7 0 1.3c-0.5 0.5-1 0.5-1.4 0.1-0.6-0.5-0.4-1.2 0.2-1.6q0.6-0.3 1.2 0.2zm0 13c0.3 0.4 0.3 0.4 0.3 1.7 0 1.3 0 1.3-0.3 1.6-0.5 0.5-1 0.5-1.4 0.1-0.3-0.3-0.4-0.4-0.4-1.7 0-1.4 0.1-1.4 0.4-1.7 0.4-0.4 0.9-0.4 1.4 0zm0 6c0.3 0.4 0.3 0.4 0.3 1.8 0 1.3 0 1.4-0.3 1.6-0.4 0.4-1 0.3-1.4 0-0.3-0.3-0.3-0.5-0.3-1.7-0.1-1.4 0-1.6 0.5-1.9q0.6-0.3 1.2 0.2zm0.5 5.8c0.2 0.2 0.4 0.3 0.5 0.9 0.1 0.4 0.3 0.9 0.5 1.3 0.3 0.8 0.3 1-0.1 1.4-0.4 0.4-1.1 0.4-1.5 0-0.3-0.3-1-2.4-1-2.8 0-0.1 0.1-0.4 0.3-0.6 0.4-0.4 0.7-0.4 1.3-0.2zm2.3 4.9c0.4 0 1.8 0.8 2.4 1.3 0.6 0.6 0.4 1.4-0.5 1.7-0.3 0.1-1.2-0.3-2.1-0.9q-1.3-0.9-0.4-1.8c0.2-0.2 0.5-0.3 0.6-0.3z" />
</svg>
